; generated by PrusaSlicer 2.4.0+win64 on 2022-03-15 at 17:10:13 UTC

; 

; external perimeters extrusion width = 0.45mm
; perimeters extrusion width = 0.45mm
; infill extrusion width = 0.45mm
; solid infill extrusion width = 0.45mm
; top infill extrusion width = 0.40mm
; first layer extrusion width = 0.42mm

M73 P0 R83
M73 Q0 S84
M201 X1000 Y1000 Z200 E5000 ; sets maximum accelerations, mm/sec^2
M203 X200 Y200 Z12 E120 ; sets maximum feedrates, mm/sec
M204 P1250 R1250 T1250 ; sets acceleration (P, T) and retract acceleration (R), mm/sec^2
M205 X8.00 Y8.00 Z0.40 E4.50 ; sets the jerk limits, mm/sec
M205 S0 T0 ; sets the minimum extruding and travel feed rate, mm/sec
M107
;TYPE:Custom
M862.3 P "MK3S" ; printer model check
M862.1 P0.4 ; nozzle diameter check
M115 U3.10.0 ; tell printer latest fw version
G90 ; use absolute coordinates
M83 ; extruder relative mode
M104 S215 ; set extruder temp
M140 S60 ; set bed temp
M190 S60 ; wait for bed temp
M109 S215 ; wait for extruder temp
G28 W ; home all without mesh bed level
G80 ; mesh bed leveling
G1 Z0.2 F720
G1 Y-3 F1000 ; go outside print area
G92 E0
G1 X60 E9 F1000 ; intro line
G1 X100 E12.5 F1000 ; intro line
G92 E0
M221 S95

; Don't change E values below. Excessive value can damage the printer.
M907 E430 ; set extruder motor current
G21 ; set units to millimeters
G90 ; use absolute coordinates
M83 ; use relative distances for extrusion
M900 K0.05 ; Filament gcode LA 1.5
M900 K30 ; Filament gcode LA 1.0
M107
;LAYER_CHANGE
;Z:0.2
;HEIGHT:0.2
;BEFORE_LAYER_CHANGE
G92 E0.0
;0.2


G1 E-.8 F2100
G1 Z.4 F720
;AFTER_LAYER_CHANGE
;0.2
G1 X76.631 Y85.523 F10800
G1 Z.2 F720
G1 E.8 F2100
M204 S800
;TYPE:Skirt/Brim
;WIDTH:0.42
G1 F1200
G1 X78.341 Y84.365 E.06475
G1 X80.218 Y83.504 E.06475
G1 X82.21 Y82.963 E.06475
G1 X84.071 Y82.768 E.05864
G1 X135.373 Y82.757 E1.60856
G1 X137.542 Y82.963 E.0683
G1 X139.535 Y83.504 E.06475
G1 X141.412 Y84.365 E.06475
G1 X143.271 Y85.65 E.07087
G1 X144.617 Y86.947 E.0586
G1 X145.958 Y88.767 E.07087
G1 X146.881 Y90.614 E.06473
G1 X147.447 Y92.395 E.0586
G1 X147.693 Y93.822 E.0454
G1 X147.76 Y94.633 E.02554
G1 X147.717 Y126.002 E.98354
G1 X147.343 Y128.032 E.06475
G1 X146.554 Y130.151 E.07088
G1 X145.857 Y131.42 E.0454
G1 X144.744 Y132.921 E.0586
G1 X143.121 Y134.495 E.07088
G1 X141.412 Y135.653 E.06475
G1 X139.535 Y136.515 E.06475
M73 Q0 S83
G1 X137.542 Y137.055 E.06475
G1 X135.682 Y137.25 E.05863
G1 X84.281 Y137.259 E1.61166
G1 X82.018 Y137.015 E.07135
G1 X80.218 Y136.515 E.0586
G1 X78.888 Y135.94 E.0454
G1 X76.964 Y134.754 E.07087
G1 X75.56 Y133.52 E.0586
G1 X75.009 Y132.921 E.02554
G1 X73.895 Y131.42 E.0586
G1 X72.943 Y129.588 E.06475
G1 X72.306 Y127.624 E.06475
G1 X72 Y125.581 E.06475
G1 X71.992 Y94.633 E.97035
G1 X72.059 Y93.822 E.02554
G1 X72.409 Y91.986 E.0586
G1 X73.199 Y89.868 E.07088
G1 X73.895 Y88.598 E.0454
G1 X75.009 Y87.097 E.0586
G1 X76.588 Y85.565 E.06899
M204 S1000
;WIPE_START
G1 F8640
G1 X78.341 Y84.365 E-.49046
G1 X79.402 Y83.878 E-.26954
;WIPE_END
G1 E-.04 F2100
G1 Z.6 F720
G1 X78.375 Y87.565 F10800
G1 Z.2 F720
G1 E.8 F2100
M204 S800
G1 F1200
G1 X78.563 Y87.397 E.00793
G1 X79.896 Y86.553 E.04944
G1 X81.313 Y85.944 E.04836
G1 X82.815 Y85.563 E.04858
G1 X84.386 Y85.421 E.04946
G1 X101.472 Y85.421 E.53572
G1 X105.217 Y85.945 E.11857
G1 X108.323 Y86.171 E.09765
G1 X111.43 Y86.171 E.09742
G1 X114.536 Y85.945 E.09766
G1 X118.288 Y85.421 E.11879
G1 X135.377 Y85.421 E.53582
G1 X137.012 Y85.576 E.05148
G1 X138.549 Y85.982 E.04985
G1 X139.915 Y86.584 E.04681
G1 X141.473 Y87.618 E.05862
G1 X142.502 Y88.584 E.04425
G1 X143.399 Y89.708 E.04509
G1 X144.251 Y91.231 E.05471
G1 X144.831 Y92.917 E.05591
G1 X145.074 Y94.381 E.04654
G1 X145.09 Y95.94 E.04887
G1 X144.851 Y97.52 E.0501
G1 X144.277 Y99.229 E.05652
G1 X143.556 Y100.57 E.04775
G1 X142.646 Y101.777 E.04739
G1 X141.396 Y102.961 E.05399
G1 X139.883 Y103.951 E.0567
G1 X138.392 Y104.59 E.05083
G1 X136.862 Y104.968 E.04943
G1 X135.405 Y105.096 E.04587
G1 X133.158 Y105.102 E.07044
G1 X133.537 Y107.388 E.07266
G1 X133.682 Y110.001 E.08204
G1 X133.533 Y112.672 E.08387
G1 X133.156 Y114.917 E.07139
G1 X135.464 Y114.925 E.07237
G1 X136.951 Y115.065 E.04683
G1 X138.543 Y115.48 E.05158
G1 X140.019 Y116.141 E.0507
G1 X141.371 Y117.037 E.05085
G1 X142.573 Y118.161 E.0516
G1 X143.552 Y119.441 E.05052
G1 X144.246 Y120.719 E.04559
G1 X144.748 Y122.1 E.0461
G1 X145.063 Y123.767 E.05317
G1 X145.089 Y125.441 E.05251
G1 X144.845 Y127.042 E.05078
G1 X144.341 Y128.581 E.05079
G1 X143.451 Y130.231 E.05878
G1 X142.415 Y131.528 E.05204
G1 X141.175 Y132.632 E.05205
G1 X139.864 Y133.461 E.04866
G1 X138.443 Y134.073 E.04851
G1 X136.945 Y134.454 E.04845
G1 X135.367 Y134.598 E.0497
G1 X118.288 Y134.598 E.53548
G1 X114.536 Y134.074 E.11879
G1 X111.43 Y133.847 E.09766
G1 X108.323 Y133.847 E.09742
G1 X105.216 Y134.074 E.09766
G1 X101.464 Y134.598 E.11879
G1 X84.388 Y134.598 E.53542
G1 X82.942 Y134.476 E.04549
G1 X81.508 Y134.139 E.04619
G1 X79.915 Y133.475 E.05409
G1 X78.248 Y132.376 E.06261
G1 X77.229 Y131.412 E.04398
G1 X76.369 Y130.332 E.0433
G1 X75.556 Y128.906 E.05145
G1 X74.986 Y127.349 E.05199
G1 X74.688 Y125.743 E.0512
G1 X74.662 Y124.08 E.05217
G1 X74.91 Y122.466 E.05119
G1 X75.433 Y120.886 E.05218
G1 X76.271 Y119.332 E.05537
G1 X77.263 Y118.07 E.05031
G1 X78.422 Y117.005 E.04936
G1 X79.744 Y116.135 E.04964
G1 X81.224 Y115.475 E.05079
G1 X82.784 Y115.068 E.05055
G1 X84.274 Y114.925 E.04693
G1 X86.596 Y114.917 E.07281
G1 X86.22 Y112.672 E.07138
G1 X86.07 Y110.02 E.08327
G1 X86.218 Y107.363 E.08346
G1 X86.593 Y105.101 E.07186
G1 X84.312 Y105.095 E.07152
G1 X82.86 Y104.963 E.04572
G1 X81.255 Y104.554 E.05193
G1 X79.729 Y103.875 E.05235
G1 X78.31 Y102.924 E.05359
G1 X77.073 Y101.738 E.05371
G1 X76.225 Y100.616 E.04409
G1 X75.546 Y99.386 E.04406
G1 X74.992 Y97.871 E.05057
G1 X74.662 Y95.943 E.06134
G1 X74.689 Y94.263 E.05269
G1 X74.994 Y92.639 E.0518
G1 X75.518 Y91.195 E.04817
G1 X76.283 Y89.815 E.04947
G1 X77.33 Y88.498 E.05275
G1 X78.33 Y87.605 E.04204
M204 S1000
G1 X78.581 Y87.886 F10800
M204 S800
G1 F1200
G1 X78.803 Y87.688 E.00931
G1 X80.084 Y86.88 E.0475
G1 X81.447 Y86.297 E.04649
G1 X82.892 Y85.932 E.04673
G1 X84.394 Y85.798 E.04727
G1 X101.458 Y85.798 E.53504
G1 X105.177 Y86.32 E.11772
M73 P0 R82
G1 X108.309 Y86.548 E.09847
G1 X111.443 Y86.548 E.09828
G1 X114.576 Y86.32 E.09848
G1 X118.302 Y85.798 E.11795
G1 X135.369 Y85.798 E.53513
G1 X136.931 Y85.945 E.04921
G1 X138.411 Y86.333 E.04798
G1 X139.721 Y86.908 E.04484
G1 X141.227 Y87.904 E.05661
G1 X142.234 Y88.849 E.04331
G1 X143.094 Y89.931 E.04332
G1 X143.913 Y91.4 E.05273
G1 X144.469 Y93.024 E.05383
G1 X144.7 Y94.428 E.04461
G1 X144.713 Y95.928 E.04703
G1 X144.48 Y97.446 E.04816
G1 X143.925 Y99.093 E.05448
G1 X143.232 Y100.378 E.0458
G1 X142.355 Y101.536 E.04554
G1 X141.149 Y102.675 E.05199
G1 X139.691 Y103.626 E.0546
G1 X138.287 Y104.228 E.04789
G1 X136.814 Y104.594 E.04758
G1 X135.396 Y104.719 E.04465
G1 X132.713 Y104.726 E.08411
G1 X133.161 Y107.42 E.08561
G1 X133.305 Y110.011 E.08139
G1 X133.157 Y112.64 E.08255
G1 X132.711 Y115.293 E.08434
G1 X135.455 Y115.302 E.08604
G1 X136.872 Y115.434 E.04462
G1 X138.404 Y115.831 E.04964
G1 X139.825 Y116.464 E.04875
G1 X141.125 Y117.324 E.04889
G1 X142.283 Y118.403 E.04964
G1 X143.228 Y119.634 E.04863
G1 X143.907 Y120.886 E.04468
G1 X144.388 Y122.214 E.04429
G1 X144.69 Y123.82 E.05123
G1 X144.712 Y125.43 E.0505
G1 X144.475 Y126.969 E.04881
G1 X143.988 Y128.448 E.04881
G1 X143.146 Y130.009 E.05563
G1 X142.13 Y131.28 E.051
G1 X140.937 Y132.34 E.05005
G1 X139.675 Y133.134 E.04674
G1 X138.308 Y133.72 E.04665
G1 X136.867 Y134.085 E.04659
G1 X135.358 Y134.22 E.04751
G1 X118.302 Y134.22 E.5348
G1 X114.576 Y133.698 E.11795
G1 X111.443 Y133.47 E.09848
G1 X108.309 Y133.47 E.09828
G1 X105.176 Y133.698 E.09848
G1 X101.451 Y134.22 E.11795
G1 X84.396 Y134.22 E.53475
G1 X82.988 Y134.102 E.0443
G1 X81.61 Y133.775 E.04439
G1 X80.077 Y133.134 E.0521
G1 X78.495 Y132.09 E.05943
G1 X77.516 Y131.166 E.04222
G1 X76.673 Y130.108 E.04241
G1 X75.891 Y128.734 E.04957
G1 X75.346 Y127.235 E.05001
G1 X75.062 Y125.691 E.04923
G1 X75.04 Y124.091 E.05019
G1 X75.28 Y122.54 E.04921
G1 X75.786 Y121.021 E.05018
G1 X76.595 Y119.526 E.05332
G1 X77.549 Y118.316 E.04831
G1 X78.665 Y117.294 E.04746
G1 X79.938 Y116.458 E.04773
G1 X81.363 Y115.826 E.04887
G1 X82.835 Y115.442 E.04771
G1 X84.284 Y115.303 E.04564
G1 X87.042 Y115.293 E.08646
G1 X86.596 Y112.64 E.08434
G1 X86.448 Y110.031 E.08195
G1 X86.594 Y107.394 E.0828
G1 X87.037 Y104.726 E.08481
G1 X84.321 Y104.718 E.08518
G1 X82.937 Y104.594 E.04355
G1 X81.393 Y104.203 E.04996
G1 X79.925 Y103.552 E.05033
G1 X78.558 Y102.639 E.05154
G1 X77.364 Y101.498 E.05178
G1 X76.549 Y100.422 E.04234
G1 X75.883 Y99.217 E.04317
G1 X75.352 Y97.758 E.04866
G1 X75.04 Y95.931 E.05813
G1 X75.063 Y94.316 E.05066
G1 X75.354 Y92.752 E.04985
G1 X75.855 Y91.364 E.04628
G1 X76.588 Y90.037 E.04754
G1 X77.594 Y88.769 E.05074
G1 X78.537 Y87.926 E.03964
M204 S1000
G1 X78.787 Y88.207 F10800
M204 S800
G1 F1200
G1 X79.042 Y87.981 E.01069
G1 X80.272 Y87.207 E.04556
G1 X81.581 Y86.65 E.04462
G1 X82.969 Y86.302 E.04487
G1 X84.402 Y86.175 E.0451
G1 X101.445 Y86.175 E.53437
G1 X105.137 Y86.695 E.11688
G1 X108.295 Y86.926 E.0993
G1 X111.457 Y86.926 E.09914
G1 X114.616 Y86.695 E.09931
G1 X118.315 Y86.175 E.11711
G1 X135.36 Y86.175 E.53443
G1 X136.88 Y86.319 E.04789
G1 X138.274 Y86.685 E.04518
G1 X139.527 Y87.232 E.04287
G1 X140.981 Y88.19 E.0546
G1 X141.948 Y89.095 E.04151
G1 X142.789 Y90.153 E.04239
G1 X143.575 Y91.568 E.05074
G1 X144.106 Y93.13 E.05175
G1 X144.325 Y94.474 E.04269
G1 X144.336 Y95.915 E.04519
G1 X144.11 Y97.372 E.04623
G1 X143.573 Y98.956 E.05245
G1 X142.907 Y100.186 E.04385
G1 X142.064 Y101.295 E.04369
G1 X140.903 Y102.389 E.05
G1 X139.499 Y103.301 E.05251
G1 X138.18 Y103.865 E.04497
G1 X136.766 Y104.219 E.04572
G1 X135.386 Y104.342 E.04342
G1 X132.199 Y104.351 E.09993
G1 X132.396 Y105.086 E.02386
G1 X132.788 Y107.47 E.07577
G1 X132.928 Y110.021 E.08011
G1 X132.781 Y112.609 E.08126
G1 X132.404 Y114.895 E.07265
G1 X132.199 Y115.668 E.02508
G1 X135.445 Y115.679 E.10178
G1 X136.821 Y115.808 E.04335
G1 X138.266 Y116.182 E.04678
M73 P1 R82
G1 X139.63 Y116.787 E.04681
G1 X140.88 Y117.611 E.04693
M73 Q1 S83
G1 X141.994 Y118.646 E.04768
G1 X142.904 Y119.827 E.04675
G1 X143.558 Y121.028 E.04287
G1 X144.029 Y122.328 E.04335
G1 X144.316 Y123.873 E.04927
G1 X144.335 Y125.419 E.04849
G1 X144.105 Y126.895 E.04684
G1 X143.635 Y128.313 E.04684
G1 X142.84 Y129.788 E.05251
G1 X141.868 Y131.009 E.04895
G1 X140.698 Y132.047 E.04904
G1 X139.488 Y132.807 E.04481
G1 X138.174 Y133.368 E.04479
G1 X136.79 Y133.715 E.04473
G1 X135.35 Y133.843 E.04533
G1 X118.315 Y133.843 E.53413
G1 X114.616 Y133.323 E.11711
G1 X111.457 Y133.093 E.09931
G1 X108.295 Y133.093 E.09914
G1 X105.136 Y133.323 E.09931
G1 X101.438 Y133.843 E.11711
G1 X84.404 Y133.843 E.53409
G1 X83.034 Y133.727 E.0431
G1 X81.713 Y133.412 E.04259
G1 X80.24 Y132.794 E.0501
G1 X78.742 Y131.805 E.05626
G1 X77.785 Y130.901 E.04128
G1 X76.977 Y129.886 E.04068
G1 X76.228 Y128.562 E.04769
G1 X75.706 Y127.122 E.04803
G1 X75.436 Y125.639 E.04725
G1 X75.417 Y124.102 E.0482
G1 X75.65 Y122.614 E.04723
G1 X76.138 Y121.157 E.04818
G1 X76.901 Y119.747 E.05028
G1 X77.836 Y118.562 E.04732
G1 X78.908 Y117.583 E.04553
G1 X80.131 Y116.782 E.04583
G1 X81.501 Y116.177 E.04695
G1 X82.886 Y115.816 E.04489
G1 X84.294 Y115.68 E.04435
G1 X87.554 Y115.668 E.1022
G1 X87.348 Y114.895 E.02507
G1 X86.972 Y112.609 E.07265
G1 X86.825 Y110.02 E.08131
G1 X86.97 Y107.425 E.08148
G1 X87.366 Y105.044 E.07568
G1 X87.552 Y104.35 E.02252
G1 X84.33 Y104.34 E.10102
G1 X83.015 Y104.224 E.0414
G1 X81.53 Y103.851 E.048
G1 X80.12 Y103.229 E.04831
G1 X78.806 Y102.355 E.04949
G1 X77.655 Y101.258 E.04984
G1 X76.858 Y100.205 E.04143
G1 X76.221 Y99.048 E.04142
G1 X75.712 Y97.646 E.04676
G1 X75.417 Y95.919 E.05494
G1 X75.437 Y94.368 E.04862
G1 X75.714 Y92.865 E.04791
G1 X76.193 Y91.532 E.0444
G1 X76.894 Y90.259 E.04559
G1 X77.879 Y89.016 E.04973
G1 X78.742 Y88.247 E.03624
M204 S1000
G1 X78.993 Y88.529 F10800
M204 S800
G1 F1200
G1 X79.28 Y88.273 E.01207
G1 X80.459 Y87.535 E.0436
G1 X81.714 Y87.003 E.04276
G1 X83.046 Y86.671 E.04302
G1 X84.41 Y86.552 E.04295
G1 X101.432 Y86.552 E.5337
G1 X105.096 Y87.07 E.11604
G1 X108.281 Y87.303 E.10013
G1 X111.471 Y87.303 E.1
G1 X114.656 Y87.07 E.10014
G1 X118.328 Y86.552 E.11627
G1 X135.351 Y86.552 E.53374
G1 X136.829 Y86.692 E.04657
G1 X138.137 Y87.036 E.0424
G1 X139.334 Y87.556 E.04091
G1 X140.735 Y88.476 E.05257
G1 X141.68 Y89.36 E.04055
G1 X142.484 Y90.375 E.04059
G1 X143.237 Y91.735 E.04875
G1 X143.744 Y93.236 E.04966
G1 X143.951 Y94.519 E.04076
G1 X143.959 Y95.902 E.04335
G1 X143.74 Y97.297 E.04429
G1 X143.221 Y98.819 E.05041
G1 X142.583 Y99.993 E.0419
G1 X141.774 Y101.054 E.04185
G1 X140.658 Y102.103 E.04801
G1 X139.336 Y102.961 E.04942
G1 X138.046 Y103.513 E.04398
G1 X136.689 Y103.85 E.04384
G1 X135.377 Y103.965 E.04129
G1 X131.707 Y103.975 E.11509
G1 X132.025 Y105.156 E.03836
G1 X132.414 Y107.521 E.07515
G1 X132.551 Y110.031 E.07882
G1 X132.407 Y112.558 E.07933
G1 X132.033 Y114.825 E.07204
G1 X131.708 Y116.044 E.03957
G1 X135.435 Y116.056 E.11687
G1 X136.771 Y116.182 E.04207
G1 X138.127 Y116.533 E.04394
G1 X139.437 Y117.111 E.04488
G1 X140.636 Y117.898 E.04497
G1 X141.706 Y118.889 E.04571
G1 X142.58 Y120.021 E.04484
G1 X143.22 Y121.196 E.04194
G1 X143.669 Y122.441 E.04151
G1 X143.942 Y123.925 E.04731
G1 X143.958 Y125.407 E.04647
G1 X143.735 Y126.821 E.04487
G1 X143.283 Y128.178 E.04487
G1 X142.535 Y129.566 E.04943
G1 X141.604 Y130.738 E.04691
G1 X140.484 Y131.737 E.04707
G1 X139.325 Y132.466 E.04293
G1 X138.067 Y133.006 E.04292
G1 X136.713 Y133.346 E.04378
G1 X135.342 Y133.466 E.04315
G1 X118.328 Y133.466 E.53346
G1 X114.656 Y132.948 E.11627
G1 X111.471 Y132.716 E.10014
G1 X108.281 Y132.716 E.1
G1 X105.096 Y132.948 E.10014
G1 X101.424 Y133.466 E.11627
G1 X84.412 Y133.466 E.53342
G1 X83.108 Y133.357 E.04103
G1 X81.816 Y133.049 E.04164
G1 X80.402 Y132.453 E.04809
G1 X78.989 Y131.519 E.05312
G1 X78.071 Y130.656 E.0395
G1 X77.282 Y129.663 E.03978
G1 X76.564 Y128.391 E.0458
G1 X76.066 Y127.009 E.04605
G1 X75.81 Y125.588 E.04527
G1 X75.794 Y124.114 E.04622
G1 X76.02 Y122.689 E.04525
G1 X76.49 Y121.293 E.0462
G1 X77.208 Y119.967 E.04727
G1 X78.102 Y118.829 E.04538
G1 X79.128 Y117.889 E.04363
G1 X80.298 Y117.121 E.04389
G1 X81.639 Y116.528 E.04597
G1 X82.966 Y116.185 E.04297
G1 X84.321 Y116.056 E.04268
G1 X88.045 Y116.043 E.11675
G1 X87.719 Y114.825 E.03956
G1 X87.345 Y112.558 E.07204
G1 X87.202 Y110.03 E.07937
G1 X87.343 Y107.477 E.08018
G1 X87.736 Y105.115 E.07506
G1 X88.044 Y103.975 E.03705
G1 X84.339 Y103.963 E.11617
G1 X83.063 Y103.85 E.04017
G1 X81.638 Y103.489 E.0461
G1 X80.315 Y102.906 E.04533
G1 X79.054 Y102.07 E.04745
G1 X77.946 Y101.018 E.04789
G1 X77.181 Y100.011 E.03965
G1 X76.558 Y98.879 E.04051
G1 X76.072 Y97.534 E.04485
G1 X75.794 Y95.906 E.05179
G1 X75.811 Y94.42 E.04659
G1 X76.074 Y92.977 E.04597
G1 X76.531 Y91.7 E.04253
G1 X77.2 Y90.48 E.04364
G1 X78.142 Y89.286 E.04768
G1 X78.948 Y88.569 E.03383
M204 S1000
G1 X79.198 Y88.849 F10800
M204 S800
G1 F1200
G1 X79.495 Y88.584 E.01247
G1 X80.621 Y87.876 E.0417
G1 X81.821 Y87.365 E.0409
G1 X83.094 Y87.046 E.04115
G1 X84.419 Y86.929 E.0417
G1 X101.419 Y86.929 E.53302
G1 X105.056 Y87.445 E.11519
G1 X108.268 Y87.68 E.10097
G1 X111.485 Y87.68 E.10087
G1 X114.697 Y87.445 E.10097
G1 X118.341 Y86.929 E.11542
G1 X135.342 Y86.929 E.53304
G1 X136.778 Y87.066 E.04525
G1 X138.001 Y87.388 E.03964
G1 X139.141 Y87.881 E.03895
G1 X140.49 Y88.763 E.05054
G1 X141.393 Y89.606 E.03872
M73 Q1 S82
G1 X142.178 Y90.597 E.03965
G1 X142.899 Y91.902 E.04674
G1 X143.382 Y93.341 E.04758
G1 X143.576 Y94.564 E.03885
G1 X143.584 Y95.859 E.04058
G1 X143.37 Y97.223 E.04329
G1 X142.87 Y98.681 E.04835
G1 X142.259 Y99.799 E.03995
G1 X141.484 Y100.813 E.04
G1 X140.412 Y101.816 E.04603
G1 X139.172 Y102.621 E.04636
G1 X137.94 Y103.15 E.04204
G1 X136.613 Y103.48 E.04288
G1 X135.369 Y103.588 E.03916
G1 X131.215 Y103.599 E.13025
G1 X131.655 Y105.227 E.05287
